X:1
T: Forteviot Jig
C:
R:Jig
Q:180
K:Em
M:6/8
L:1/16
|:B,2|E4G2 F4A2|G4B2 A4c2|B4e2 e2B2A2|G4E2 F4B2|
b4B2 a4B2|g4B2 f4c2|B2c2B2 A2G2F2|1E6 E4B,2:|2E6 E4d2|
g2f2g2 d2B2c2|d2g2e2 d2c2B2|a2^g2a2 e2c2d2|e2a2g2 f2e2d2|
g2f2g2 d2B2c2|d2g2e2 d2c2B2|A2c2B2 A2G2F2|E6 d6|
g2d2B2 G2B2d2|g2f2g2 d2c2B2|a2e2c2 A2c2e2|a2^g2a2 f2e2d2|
b2g2b2 a2f2a2|g2e2f2 g4c2|B2c2B2 A2G2F2|E6 E6||

